X: 31405
T: Paddy On The Turnpike
R: reel
M: 4/4
K: Gdorian
|:DGGA G^FGA|BGdG _eGdG|CFFG FEFG|AFcF dFcF|
DGGA G^FGA|BABc dcde|fgfd cAFA|BGAF DG G2:|
|:dgga g^fga|bgga bg g2|cffg fefg|affg af f2|
dgga bagb|abag fedc|defd cAFA|B/A/GAF DG G2:|

